material/.icons/material/folder-network.svg

<svg xmlns="http://www.w3.org/2000/svg" viewBox="0 0 24 24"><path d="M3 15V5a2 2 0 012-2h6l2 2h6a2 2 0 012 2v8a2 2 0 01-2 2h-6v2h1a1 1 0 011 1h7v2h-7a1 1 0 01-1 1h-4a1 1 0 01-1-1H2v-2h7a1 1 0 011-1h1v-2H5a2 2 0 01-2-2z"/></svg>

<?xml version="1.0" encoding="UTF-8"?><!DOCTYPE svg PUBLIC "-//W3C//DTD SVG 1.1//EN" "http://www.w3.org/Graphics/SVG/1.1/DTD/svg11.dtd"><svg xmlns="http://www.w3.org/2000/svg" xmlns:xlink="http://www.w3.org/1999/xlink" version="1.1" id="mdi-folder-network" width="24" height="24" viewBox="0 0 24 24"><path d="M3,15V5A2,2 0 0,1 5,3H11L13,5H19A2,2 0 0,1 21,7V15A2,2 0 0,1 19,17H13V19H14A1,1 0 0,1 15,20H22V22H15A1,1 0 0,1 14,23H10A1,1 0 0,1 9,22H2V20H9A1,1 0 0,1 10,19H11V17H5A2,2 0 0,1 3,15Z" /></svg>
